modules/themify-icons/icons/layout-menu-full.svg

<?xml version="1.0" encoding="utf-8"?>
<!-- Generated by IcoMoon.io -->
<!DOCTYPE svg PUBLIC "-//W3C//DTD SVG 1.1//EN" "http://www.w3.org/Graphics/SVG/1.1/DTD/svg11.dtd">
<svg version="1.1" xmlns="http://www.w3.org/2000/svg" xmlns:xlink="http://www.w3.org/1999/xlink" width="17" height="17" viewBox="0 0 17 17">
<g>
</g>
	<path d="M0 7v3h17v-3h-17zM9 8h3v1h-3v-1zM8 9h-3v-1h3v1zM1 8h3v1h-3v-1zM16 9h-3v-1h3v1z" fill="#000000" />
</svg>

<svg xmlns="http://www.w3.org/2000/svg" width="17" height="17" viewBox="0 0 17 17"><path d="M0 7v3h17V7H0zm9 1h3v1H9V8zM8 9H5V8h3v1zM1 8h3v1H1V8zm15 1h-3V8h3v1z"/></svg>
